X: 1172
T: The Fir Trea
%R: strathspey
B: Niel Gow & Sons "A Collection of Strathspey Reels, etc." v.1 p.17 #2
Z: 2022 John Chambers <jc:trillian.mit.edu>
M: C
L: 1/8
K: D
% - - - - - - - - - -
% Voice 1 reformatted for _ _-bar lines, for compactness and proofreading.
V: 1 staves=2
A |\
{G}TF2 DB/c/ d>A=c>G | {F}TE2 =C>E =c>GE<A | {G}TF2 DB/c/ d>AB>A | {G}TF2 DB/c/ d/c/B/A/ d>A || {G}F2 DB/c/ d>A=c>G |
{F}TE2 =C>E c>GE>G | D>EF<G A<dA>F | G<ETA>G FD-D |]| f | d/d/d f>d g>ef>d | e/e/e Tf>d g>e=c>e | d/d/d f>d g>ef>d |
e/e/e a>g f>dd<f ||  d/d/d f>d g>ef>d | e/e/e Tf>d g>e=c>e | d>ef<g a<bTa>f | g>e a/g/f/e/ f<d-d |]
% - - - - - - - - - -
% Voice 2 preserves the staff layout in the book.
V: 2 clef=bass middle=d
z | d2d2 d2d2 | =c2c2 c2c2 | d2d2 d2d2 | c2d2 d2d2 || d2d2 d2d2 |
=c2c2 c2c2 | d2d2 f2d2 | A2A2 d2d |][| z | d2d2 d2d2 | d2d2 =c2c2 | d2d2 d2d2 |
A2A2 d2d2 || d2d2 d2d2 | d2d2 =c2c2 | d2e2 f2d2 | A2A2 d2d |]


